icons/midnadark/actions/24/text_letter_spacing.svg

<svg xmlns="http://www.w3.org/2000/svg" viewBox="0 0 22 22"><path d="m4 4v2 1 2 1h1 2c1.108 0 2-.892 2-2 0-.811-.481-1.502-1.172-1.816.106-.206.172-.435.172-.684 0-.831-.669-1.5-1.5-1.5h-1.5-1m11 0v6h2 1c1.108 0 2-.892 2-2v-2c0-1.108-.892-2-2-2h-1-2m-10 1h1.5c.277 0 .5.223.5.5 0 .277-.223.5-.5.5h-1.5v-1m11 0h1 1c.554 0 1 .446 1 1v2c0 .554-.446 1-1 1h-1-1v-4m-11 2h1.5.5c.554 0 1 .446 1 1 0 .554-.446 1-1 1h-2v-2m6 0v1h2v-1h-2zm-6 6v1h2v-1h-2m4 0v1h2v-1h-2m4 0v1h2v-1h-2m4 0v1h2v-1h-2m-11 3l-2 2 2 2v-4m12 0v4l2-2-2-2m-6 1c-.554 0-1 .446-1 1 0 .554.446 1 1 1 .554 0 1-.446 1-1 0-.554-.446-1-1-1" transform="matrix(1.125 0 0 1.125-2.504-2.502)" fill="#fff"/></svg>

<?xml version="1.0" encoding="UTF-8" standalone="no"?>
<!-- Created with Inkscape (http://www.inkscape.org/) -->

<svg
   xmlns:dc="http://purl.org/dc/elements/1.1/"
   xmlns:cc="http://creativecommons.org/ns#"
   xmlns:rdf="http://www.w3.org/1999/02/22-rdf-syntax-ns#"
   xmlns:svg="http://www.w3.org/2000/svg"
   xmlns="http://www.w3.org/2000/svg"
   xmlns:sodipodi="http://sodipodi.sourceforge.net/DTD/sodipodi-0.dtd"
   xmlns:inkscape="http://www.inkscape.org/namespaces/inkscape"
   width="22"
   height="22"
   id="svg2"
   version="1.1"
   inkscape:version="0.91 r13725"
   viewBox="0 0 22 22"
   sodipodi:docname="text_letter_spacing.svg">
  <defs
     id="defs4" />
  <sodipodi:namedview
     id="base"
     pagecolor="#ffffff"
     bordercolor="#666666"
     borderopacity="1.0"
     inkscape:pageopacity="0.0"
     inkscape:pageshadow="2"
     inkscape:zoom="8.420999"
     inkscape:cx="-1.8493385"
     inkscape:cy="22.175809"
     inkscape:document-units="px"
     inkscape:current-layer="layer1-8"
     showgrid="true"
     inkscape:showpageshadow="false"
     borderlayer="true"
     inkscape:window-width="1366"
     inkscape:window-height="633"
     inkscape:window-x="0"
     inkscape:window-y="33"
     inkscape:window-maximized="1"
     units="px"
     fit-margin-top="0"
     fit-margin-left="0"
     fit-margin-right="0"
     fit-margin-bottom="0"
     inkscape:object-nodes="true"
     inkscape:snap-bbox="true">
    <sodipodi:guide
       position="4,20"
       orientation="16,0"
       id="guide4093" />
    <sodipodi:guide
       position="4,4"
       orientation="0,16"
       id="guide4095" />
    <sodipodi:guide
       position="20,4"
       orientation="-16,0"
       id="guide4097" />
    <sodipodi:guide
       position="20,20"
       orientation="0,-16"
       id="guide4099" />
    <inkscape:grid
       type="xygrid"
       id="grid4101"
       originx="1px"
       originy="0.99998262px" />
    <sodipodi:guide
       position="4,20"
       orientation="16,0"
       id="guide4123" />
    <sodipodi:guide
       position="4,4"
       orientation="0,2.000001"
       id="guide4125" />
    <sodipodi:guide
       position="6.000001,20"
       orientation="0,-2.000001"
       id="guide4129" />
    <sodipodi:guide
       position="18,4"
       orientation="0,2"
       id="guide4133" />
    <sodipodi:guide
       position="20,4"
       orientation="-16,0"
       id="guide4135" />
    <sodipodi:guide
       position="20,20"
       orientation="0,-2"
       id="guide4137" />
  </sodipodi:namedview>
  <metadata
     id="metadata7">
    <rdf:RDF>
      <cc:Work
         rdf:about="">
        <dc:format>image/svg+xml</dc:format>
        <dc:type
           rdf:resource="http://purl.org/dc/dcmitype/StillImage" />
        <dc:title />
      </cc:Work>
    </rdf:RDF>
  </metadata>
  <g
     inkscape:label="Capa 1"
     inkscape:groupmode="layer"
     id="layer1"
     transform="translate(1,-1031.3622)">
    <g
       transform="translate(-1,1.738e-5)"
       id="layer1-9"
       inkscape:label="Capa 1">
      <g
         transform="translate(1,-1)"
         id="layer1-8"
         inkscape:label="Capa 1">
        <g
           transform="matrix(1.125,0,0,1.125,-412.51786,439.47259)"
           id="layer1-7"
           inkscape:label="Capa 1"
           style="fill:#ffffff;fill-opacity:1">
          <g
             inkscape:label="Capa 1"
             id="layer1-9-2"
             transform="translate(-186.71428,-81.85714)"
             style="fill:#ffffff;fill-opacity:1">
            <path
               inkscape:connector-curvature="0"
               style="font-style:normal;font-variant:normal;font-weight:normal;font-stretch:normal;font-size:medium;line-height:125%;font-family:Oxygen;-inkscape-font-specification:Oxygen;letter-spacing:0px;word-spacing:0px;fill:#ffffff;fill-opacity:1;stroke:none;stroke-width:1px;stroke-linecap:butt;stroke-linejoin:miter;stroke-opacity:1"
               d="m 4,4 0,2 0,1 0,2 0,1 1,0 2,0 C 8.108,10 9,9.108 9,8 9,7.18906 8.518735,6.4981038 7.828125,6.1835938 7.934075,5.9777437 8,5.74831 8,5.5 8,4.669 7.331,4 6.5,4 L 5,4 4,4 Z m 11,0 0,6 2,0 1,0 c 1.10801,0 2,-0.89199 2,-2 L 20,6 C 20,4.89199 19.10801,4 18,4 L 17,4 15,4 Z M 5,5 6.5,5 C 6.777,5 7,5.223 7,5.5 7,5.777 6.777,6 6.5,6 L 5,6 5,5 Z m 11,0 1,0 1,0 c 0.55401,0 1,0.44599 1,1 l 0,2 c 0,0.55401 -0.44599,1 -1,1 L 17,9 16,9 16,5 Z M 5,7 6.5,7 7,7 C 7.554,7 8,7.446 8,8 8,8.554 7.554,9 7,9 L 5,9 5,7 Z m 6,0 0,1 2,0 0,-1 -2,0 z m -6,6 0,1 2,0 0,-1 -2,0 z m 4,0 0,1 2,0 0,-1 -2,0 z m 4,0 0,1 2,0 0,-1 -2,0 z m 4,0 0,1 2,0 0,-1 -2,0 z m -11,3 -2,2 2,2 0,-4 z m 12,0 0,4 2,-2 -2,-2 z m -6,1 c -0.554,0 -1,0.446 -1,1 0,0.554 0.446,1 1,1 0.554,0 1,-0.446 1,-1 0,-0.554 -0.446,-1 -1,-1 z"
               transform="translate(550.28571,606.64789)"
               id="path4152" />
          </g>
        </g>
      </g>
    </g>
  </g>
</svg>
